X: 30639
T: Oogly Googly
R: reel
M: 4/4
K: Dminor
|:Addc d3c|Acdc AGFE|Addc d2df|ec c/c/c acgc|
Addc d2df|ec c/c/c acgc|a2^ga fedf|efge fdd2:|
a3e fede|ecgc acgc|a2^ga fedf|edcB AddA|
a3e fede|ecgc acgc|Acde fede|fage fdgd|
a2^ga fedf|ec c/c/c acgc|a2^ga fedf|edcB AddA|
d3a fedf|ecgc acgc|Acde fede|fage fedc||

